src/img/header/telegram.svg

<svg width="16" height="16" viewBox="0 0 16 16" fill="none" xmlns="http://www.w3.org/2000/svg">
<path d="M14 0H2C0.895431 0 0 0.895431 0 2V14C0 15.1046 0.895431 16 2 16H14C15.1046 16 16 15.1046 16 14V2C16 0.895431 15.1046 0 14 0Z" fill="#61A8DE"/>
<path d="M12.5983 3.53213L1.8989 7.70157C1.55234 7.83663 1.57334 8.33394 1.93008 8.43927L4.64891 9.24213L5.66358 12.4618C5.76957 12.7981 6.19575 12.9 6.44246 12.6481L7.84816 11.2128L10.6063 13.2374C10.9438 13.4851 11.4245 13.301 11.5102 12.8912L13.3369 4.15765C13.4264 3.72986 13.0055 3.37344 12.5983 3.53213ZM11.2569 5.47032L6.28707 9.86513C6.23753 9.90894 6.206 9.96957 6.19863 10.0353L6.00729 11.7362C6.00104 11.7917 5.92341 11.799 5.90684 11.7457L5.11961 9.20905C5.08355 9.09292 5.13056 8.96709 5.23388 8.90301L11.1027 5.26311C11.2377 5.17934 11.3759 5.36514 11.2569 5.47032Z" fill="white"/>
</svg>

<svg width="16" height="16" fill="none" xmlns="http://www.w3.org/2000/svg"><path d="M14 0H2a2 2 0 00-2 2v12a2 2 0 002 2h12a2 2 0 002-2V2a2 2 0 00-2-2z" fill="#61A8DE"/><path d="M12.598 3.532l-10.7 4.17a.39.39 0 00.032.737l2.719.803 1.015 3.22a.467.467 0 00.778.186l1.406-1.435 2.758 2.024a.576.576 0 00.904-.346l1.827-8.733a.55.55 0 00-.739-.626zM11.257 5.47l-4.97 4.395a.267.267 0 00-.088.17l-.192 1.701c-.006.056-.084.063-.1.01L5.12 9.209a.267.267 0 01.114-.306l5.869-3.64c.135-.084.273.102.154.207z" fill="#fff"/></svg>
